X:4105
T:Mazurka du Vignoble
O:england
C:E. Grandjean
M:3/4
L:1/8
K:G
DG|B2 Bc BA|D4 DF|A2 AB AG|D4 DG|\
B2 Bc BA|e4 DF|AG AB AF|G2G2=F2|
K:C
|:E2 EF GA|G3G AB|c2 cB dc|B2 A2 A2|1 D3 E FG|\
B4 B2|cB AG ^FG|A2 G2F2:|2 d3 c BA|
G3 G ^FG|BA GF ED|C2 C2 EF||GF Ge dc|B2 A2 dc|1 BG GG AG|\
E2 C2 EF:|2 BG GG AG|c2 (3cec DG||


